polaris-icons/icons/new-icons/TransactionFeeYenMajor.svg

<svg width="20" height="20" viewBox="0 0 20 20" fill="none" xmlns="http://www.w3.org/2000/svg">
<path fill-rule="evenodd" clip-rule="evenodd" d="M6.25 3C5.00736 3 4 4.00736 4 5.25C4 6.49264 5.00736 7.5 6.25 7.5C6.60921 7.5 6.94876 7.41582 7.25 7.26612V11.25C7.25 12.7688 8.48122 14 10 14H10.25C10.6642 14 11 13.6642 11 13.25C11 12.8358 10.6642 12.5 10.25 12.5H10C9.30964 12.5 8.75 11.9404 8.75 11.25V6H11.628C11.9369 6.87389 12.7703 7.5 13.75 7.5C14.9926 7.5 16 6.49264 16 5.25C16 4.00736 14.9926 3 13.75 3C12.7703 3 11.9369 3.62611 11.628 4.5H8.37197C8.06309 3.62611 7.22966 3 6.25 3ZM5.5 5.25C5.5 4.83579 5.83579 4.5 6.25 4.5C6.66421 4.5 7 4.83579 7 5.25C7 5.66421 6.66421 6 6.25 6C5.83579 6 5.5 5.66421 5.5 5.25ZM13 5.25C13 4.83579 13.3358 4.5 13.75 4.5C14.1642 4.5 14.5 4.83579 14.5 5.25C14.5 5.66421 14.1642 6 13.75 6C13.3358 6 13 5.66421 13 5.25Z" fill="#4A4A4A"/>
<path d="M12.9939 9.18558C12.6822 8.91282 12.2083 8.9444 11.9356 9.25613C11.6628 9.56786 11.6944 10.0417 12.0061 10.3144L13.75 11.8403V12.25H12.75C12.3358 12.25 12 12.5858 12 13C12 13.4142 12.3358 13.75 12.75 13.75H13.75V14.25H12.75C12.3358 14.25 12 14.5858 12 15C12 15.4142 12.3358 15.75 12.75 15.75H13.75V16.25C13.75 16.6642 14.0858 17 14.5 17C14.9142 17 15.25 16.6642 15.25 16.25V15.75H16.25C16.6642 15.75 17 15.4142 17 15C17 14.5858 16.6642 14.25 16.25 14.25H15.25V13.75H16.25C16.6642 13.75 17 13.4142 17 13C17 12.5858 16.6642 12.25 16.25 12.25H15.25V11.8403L16.9939 10.3144C17.3056 10.0417 17.3372 9.56786 17.0644 9.25613C16.7917 8.9444 16.3179 8.91282 16.0061 9.18558L14.5 10.5034L12.9939 9.18558Z" fill="#4A4A4A"/>
</svg>

<svg viewBox="0 0 20 20" xmlns="http://www.w3.org/2000/svg"><path fill-rule="evenodd" d="M6.25 3a2.25 2.25 0 1 0 1 4.266v3.984a2.75 2.75 0 0 0 2.75 2.75h.25a.75.75 0 0 0 0-1.5h-.25c-.69 0-1.25-.56-1.25-1.25v-5.25h2.878a2.251 2.251 0 1 0 0-1.5h-3.256a2.25 2.25 0 0 0-2.122-1.5Zm-.75 2.25a.75.75 0 1 1 1.5 0 .75.75 0 0 1-1.5 0Zm7.5 0a.75.75 0 1 1 1.5 0 .75.75 0 0 1-1.5 0Z" fill="#5C5F62"/><path d="M12.994 9.186a.75.75 0 0 0-.988 1.128l1.744 1.526v.41h-1a.75.75 0 0 0 0 1.5h1v.5h-1a.75.75 0 0 0 0 1.5h1v.5a.75.75 0 0 0 1.5 0v-.5h1a.75.75 0 0 0 0-1.5h-1v-.5h1a.75.75 0 0 0 0-1.5h-1v-.41l1.744-1.526a.75.75 0 1 0-.988-1.128l-1.506 1.317-1.506-1.317Z" fill="#5C5F62"/></svg>
